X:6181
T:Sous le pont d'Entraygues
O:england
M:3/8
L:1/8
K:C
c/d/|e2e|e/d/ef|g2f|ecd|\
e2e|e/d/ef|gfe|d2:|
|:B/c/|d2d|d/B/df|e2d|cBc|\
|d2d|d/B/df|e2d|c2:|
